; generated by PrusaSlicer 2.4.2 on 2022-09-11 at 18:38:29 UTC

; 

; external perimeters extrusion width = 0.60mm
; perimeters extrusion width = 0.50mm
; infill extrusion width = 0.50mm
; solid infill extrusion width = 0.50mm
; top infill extrusion width = 0.45mm
; first layer extrusion width = 0.42mm

M73 P0 R68
M73 Q0 S69
M201 X1000 Y1000 Z200 E5000 ; sets maximum accelerations, mm/sec^2
M203 X200 Y200 Z12 E120 ; sets maximum feedrates, mm / sec
M204 P1250 R1250 T1250 ; sets acceleration (P, T) and retract acceleration (R), mm/sec^2
M205 X8.00 Y8.00 Z0.40 E4.50 ; sets the jerk limits, mm/sec
M205 S0 T0 ; sets the minimum extruding and travel feed rate, mm/sec
M107
;TYPE:Custom
M862.3 P "MK3S" ; printer model check
M862.1 P0.4 ; nozzle diameter check
M115 U3.10.1 ; tell printer latest fw version
G90 ; use absolute coordinates
M83 ; extruder relative mode
M104 S215 ; set extruder temp
M140 S60 ; set bed temp
M190 S60 ; wait for bed temp
M109 S215 ; wait for extruder temp
G28 W ; home all without mesh bed level
G80 ; mesh bed leveling
G1 Z0.2 F720
G1 Y-3 F1000 ; go outside print area
G92 E0
G1 X60 E9 F1000 ; intro line
G1 X100 E12.5 F1000 ; intro line
G92 E0
M221 S95

; Don't change E values below. Excessive value can damage the printer.

M907 E538 ; set extruder motor current
G21 ; set units to millimeters
G90 ; use absolute coordinates
M83 ; use relative distances for extrusion
M900 K0.05 ; Filament gcode LA 1.5
M900 K30 ; Filament gcode LA 1.0
M107
;LAYER_CHANGE
;Z:0.2
;HEIGHT:0.2
;BEFORE_LAYER_CHANGE
G92 E0.0
;0.2


G1 E-.8 F2100
G1 Z.4 F720
;AFTER_LAYER_CHANGE
;0.2
G1 X99.537 Y57.862 F10800
G1 Z.2 F720
G1 E.8 F2100
M204 S800
;TYPE:Skirt/Brim
;WIDTH:0.42
G1 F1200
G1 X100.671 Y57.082 E.04316
G1 X101.394 Y56.969 E.02295
G1 X141.727 Y56.976 E1.2646
G1 X143.058 Y57.111 E.04195
G1 X143.997 Y57.336 E.03028
G1 X145.244 Y57.821 E.04195
G1 X146.4 Y58.495 E.04195
G1 X147.436 Y59.341 E.04195
G1 X148.326 Y60.339 E.04195
G1 X149.05 Y61.464 E.04195
G1 X149.589 Y62.689 E.04195
G1 X149.988 Y64.351 E.0536
G1 X150.071 Y65.5 E.03613
G1 X150.071 Y144.5 E2.47699
G1 X149.93 Y146.018 E.04779
M73 Q0 S68
G1 X149.589 Y147.311 E.04195
G1 X149.22 Y148.203 E.03028
G1 X148.326 Y149.661 E.0536
G1 X147.436 Y150.659 E.04195
G1 X146.701 Y151.286 E.03028
G1 X145.576 Y152.01 E.04195
G1 X144.352 Y152.549 E.04195
G1 X142.69 Y152.948 E.0536
G1 X141.54 Y153.031 E.03613
G1 X101.397 Y153.031 E1.25868
G1 X99.902 Y152.503 E.04969
G1 X99.122 Y151.369 E.04316
G1 X99.01 Y150.646 E.02293
G1 X99.009 Y59.356 E2.86233
G1 X99.517 Y57.919 E.04779
M204 S1000
; printing object rei-mug-handle.stl id:0 copy 0
;WIPE_START
G1 F8640
G1 X100.671 Y57.082 E-.32913
G1 X101.394 Y56.969 E-.16898
G1 X102.529 Y56.97 E-.26189
;WIPE_END
G1 E-.04 F2100
G1 Z.6 F720
G1 X103.857 Y142.303 F10800
G1 Z.2 F720
G1 E.8 F2100
M204 S800
;TYPE:Perimeter
G1 F1200
G1 X104.105 Y142.551 E.01099
G1 X105.078 Y143.391 E.04032
G1 X106.55 Y144.293 E.05413
G1 X108.144 Y144.953 E.05408
G1 X109.821 Y145.356 E.05408
G1 X111.509 Y145.489 E.05311
G1 X138.238 Y145.489 E.83805
G1 X139.509 Y145.389 E.03999
G1 X140.78 Y145.084 E.04096
G1 X141.986 Y144.584 E.04096
G1 X143.1 Y143.902 E.04096
G1 X144.094 Y143.053 E.04096
G1 X144.947 Y142.053 E.04124
G1 X145.203 Y141.606 E.01613
G1 X145.189 Y144.468 E.08971
G1 X145.142 Y145.07 E.01896
G1 X145.008 Y145.627 E.01794
G1 X144.789 Y146.155 E.01794
G1 X144.49 Y146.643 E.01794
G1 X144.119 Y147.078 E.01794
G1 X143.684 Y147.45 E.01794
G1 X143.196 Y147.749 E.01794
G1 X142.667 Y147.968 E.01794
G1 X142.111 Y148.101 E.01794
G1 X141.509 Y148.149 E.01891
G1 X103.891 Y148.149 E1.17951
G1 X103.883 Y142.597 E.17408
G1 X103.863 Y142.363 E.00736
M204 S1000
;WIPE_START
G1 F8640
G1 X104.105 Y142.551 E-.07085
G1 X105.078 Y143.391 E-.29689
G1 X106.527 Y144.279 E-.39226
;WIPE_END
G1 E-.04 F2100
G1 Z.6 F720
G1 X103.314 Y140.858 F10800
G1 Z.2 F720
G1 E.8 F2100
M204 S800
;TYPE:External perimeter
G1 F1200
G1 X103.634 Y141.227 E.01529
G1 X104.043 Y141.956 E.02623
G1 X104.362 Y142.275 E.01414
G1 X105.302 Y143.086 E.03892
G1 X106.722 Y143.956 E.05223
G1 X108.261 Y144.594 E.05222
G1 X109.88 Y144.983 E.05222
G1 X111.524 Y145.112 E.05171
G1 X138.223 Y145.112 E.83712
G1 X139.45 Y145.015 E.03859
G1 X140.663 Y144.724 E.0391
G1 X141.815 Y144.247 E.0391
G1 X142.878 Y143.596 E.0391
G1 X143.826 Y142.786 E.0391
G1 X144.638 Y141.835 E.0392
G1 X145.052 Y141.111 E.02616
G1 X145.231 Y140.712 E.01369
G1 X145.423 Y139.925 E.02541
G1 X145.574 Y139.56 E.01237
G1 X145.766 Y138.759 E.02585
G1 X145.766 Y139.985 E.03844
G1 X145.622 Y140.976 E.03141
G1 X145.581 Y141.491 E.01619
G1 X145.566 Y144.483 E.09383
G1 X145.515 Y145.13 E.02032
G1 X145.368 Y145.744 E.0198
G1 X145.126 Y146.327 E.0198
G1 X144.796 Y146.866 E.0198
G1 X144.386 Y147.346 E.0198
G1 X143.906 Y147.756 E.0198
G1 X143.368 Y148.086 E.0198
G1 X142.784 Y148.328 E.0198
G1 X142.17 Y148.475 E.0198
G1 X141.524 Y148.526 E.02031
G1 X103.514 Y148.526 E1.19178
G1 X103.506 Y142.614 E.18537
G1 X103.462 Y142.107 E.01594
G1 X103.359 Y141.622 E.01556
G1 X103.314 Y141.159 E.01458
G1 X103.314 Y140.918 E.00754
M204 S1000
G1 X103.505 Y141.21 F10800
;WIPE_START
G1 F8640
G1 X103.634 Y141.227 E-.10257
G1 X104.043 Y141.956 E-.19313
G1 X104.362 Y142.275 E-.1041
G1 X105.302 Y143.086 E-.2866
G1 X105.573 Y143.253 E-.0736
;WIPE_END
G1 E-.04 F2100
G1 Z.6 F720
G1 X103.877 Y74.575 F10800
G1 Z.2 F720
G1 E.8 F2100
M204 S800
;TYPE:Perimeter
G1 F1200
G1 X103.891 Y61.851 E.39894
G1 X141.509 Y61.851 E1.17949
G1 X142.111 Y61.899 E.01891
G1 X142.667 Y62.032 E.01794
G1 X143.196 Y62.251 E.01794
G1 X143.684 Y62.55 E.01794
G1 X144.119 Y62.922 E.01794
G1 X144.49 Y63.357 E.01794
G1 X144.789 Y63.845 E.01794
G1 X145.008 Y64.373 E.01794
G1 X145.142 Y64.93 E.01794
G1 X145.189 Y65.532 E.01896
G1 X145.203 Y68.378 E.08922
G1 X144.943 Y67.943 E.01588
G1 X144.094 Y66.947 E.04104
G1 X143.1 Y66.098 E.04096
G1 X141.986 Y65.416 E.04096
G1 X140.78 Y64.916 E.04096
G1 X139.509 Y64.611 E.04096
G1 X138.238 Y64.511 E.03999
G1 X121.909 Y64.511 E.51197
G1 X118.594 Y64.772 E.10427
G1 X115.33 Y65.556 E.10525
G1 X114.548 Y65.88 E.02655
G1 X112.229 Y66.84 E.0787
G1 X109.367 Y68.594 E.10525
G1 X106.814 Y70.774 E.10525
G1 X104.633 Y73.327 E.10529
G1 X103.908 Y74.524 E.04386
M204 S1000
;WIPE_START
G1 F8640
G1 X103.904 Y71.232 E-.76
;WIPE_END
G1 E-.04 F2100
G1 Z.6 F720
G1 X103.396 Y76.451 F10800
G1 Z.2 F720
M73 P0 R67
G1 E.8 F2100
M204 S800
;TYPE:External perimeter
G1 F1200
G1 X103.32 Y76.635 E.00622
G1 X103.329 Y75.77 E.0271
G1 X103.428 Y75.293 E.01529
G1 X103.491 Y74.787 E.01599
G1 X103.511 Y74.285 E.01576
G1 X103.514 Y61.474 E.40167
G1 X141.524 Y61.474 E1.19177
G1 X142.17 Y61.525 E.02031
M73 P1 R67
M73 Q1 S68
G1 X142.784 Y61.672 E.0198
G1 X143.368 Y61.914 E.0198
G1 X143.906 Y62.244 E.0198
G1 X144.386 Y62.654 E.0198
G1 X144.796 Y63.134 E.0198
G1 X145.126 Y63.673 E.0198
G1 X145.368 Y64.256 E.0198
G1 X145.515 Y64.87 E.0198
G1 X145.566 Y65.517 E.02032
G1 X145.581 Y68.509 E.09383
G1 X145.622 Y69.024 E.01619
G1 X145.766 Y70.015 E.03141
G1 X145.766 Y71.241 E.03844
G1 X145.574 Y70.44 E.02585
G1 X145.423 Y70.075 E.01237
G1 X145.231 Y69.288 E.02541
G1 X145.053 Y68.891 E.01362
G1 X144.636 Y68.163 E.0263
G1 X143.826 Y67.214 E.03913
G1 X142.878 Y66.404 E.0391
G1 X141.815 Y65.753 E.0391
G1 X140.663 Y65.276 E.0391
G1 X139.45 Y64.985 E.0391
G1 X138.223 Y64.888 E.03859
G1 X121.924 Y64.888 E.51104
G1 X118.653 Y65.146 E.10288
G1 X115.447 Y65.915 E.10339
G1 X114.692 Y66.228 E.02562
G1 X112.401 Y67.177 E.07776
G1 X109.589 Y68.9 E.10339
G1 X107.082 Y71.041 E.10339
G1 X104.94 Y73.549 E.1034
G1 X104.201 Y74.768 E.04469
G1 X103.979 Y75.194 E.01507
G1 X103.637 Y76.059 E.02916
G1 X103.428 Y76.4 E.01255
M204 S1000
G1 X103.199 Y76.474 F10800
G1 X103.569 Y75.656
M204 S800
;TYPE:Gap fill
;WIDTH:0.120149
G1 F1200
G1 X103.617 Y75.495 E.00108
M204 S1000
M204 S800
;WIDTH:0.146979
G1 X103.665 Y75.335 E.00145
M204 S1000
M204 S800
;WIDTH:0.147878
G1 X103.666 Y75.33 E.00004
M204 S1000
M204 S800
;WIDTH:0.179927
G1 X103.697 Y75.208 E.00145
M204 S1000
M204 S800
;WIDTH:0.211975
G1 X103.729 Y75.085 E.00178
M204 S1000
M204 S800
;WIDTH:0.21464
G1 X103.731 Y75.076 E.00013
M204 S1000
M204 S800
;WIDTH:0.251822
G1 X103.781 Y74.917 E.0029
M204 S1000
M204 S800
;WIDTH:0.289002
G1 X103.83 Y74.758 E.00341
M204 S1000
;WIPE_START
G1 F8640
G1 X103.781 Y74.917 E-.0385
;WIPE_END
G1 E-.7615 F2100
G1 Z.6 F720
G1 X145.255 Y68.559 F10800
G1 Z.2 F720
G1 E.8 F2100
M204 S800
;WIDTH:0.244511
G1 F1200
G1 X145.313 Y68.767 E.00362
M204 S1000
M204 S800
;WIDTH:0.241568
G1 X145.349 Y68.908 E.0024
M204 S1000
M204 S800
;WIDTH:0.192267
G1 X145.385 Y69.049 E.00181
M204 S1000
M204 S800
;WIDTH:0.142967
G1 X145.386 Y69.052 E.00003
M204 S1000
M204 S800
;WIDTH:0.141994
G1 X145.434 Y69.216 E.0014
M204 S1000
M204 S800
;WIDTH:0.0948053
G1 X145.435 Y69.22 E.00002
M204 S1000
M204 S800
;WIDTH:0.0939275
G1 X145.441 Y69.251 E.00013
M204 S1000
;WIPE_START
G1 F8640
G1 X145.435 Y69.22 E-.00729
;WIPE_END
G1 E-.79271 F2100
G1 Z.6 F720
G1 X144.684 Y63.889 F10800
G1 Z.2 F720
G1 E.8 F2100
M204 S800
;TYPE:Solid infill
;WIDTH:0.422592
G1 F1200
G1 X143.911 Y63.116 E.03452
G1 X143.517 Y62.78 E.01635
G1 X143.067 Y62.504 E.01666
G1 X142.554 Y62.296 E.01749
G1 X144.745 Y64.487 E.09783
G1 X144.862 Y64.974 E.01582
G1 X144.876 Y65.155 E.00573
G1 X141.885 Y62.164 E.13351
G1 X141.318 Y62.134 E.01794
G1 X144.907 Y65.723 E.16025
G1 X144.91 Y66.263 E.01703
G1 X140.781 Y62.134 E.18434
G1 X140.244 Y62.134 E.01695
G1 X144.913 Y66.802 E.20843
G1 X144.915 Y67.342 E.01703
G1 X139.707 Y62.134 E.23251
G1 X139.17 Y62.134 E.01695
G1 X142.333 Y65.297 E.1412
G1 X142.115 Y65.163 E.00806
G1 X141.342 Y64.843 E.0264
G1 X138.633 Y62.134 E.12095
G1 X138.096 Y62.134 E.01695
G1 X140.527 Y64.565 E.10852
G1 X139.82 Y64.395 E.02294
G1 X137.559 Y62.134 E.10094
G1 X137.023 Y62.134 E.01695
G1 X139.191 Y64.302 E.09681
G1 X138.608 Y64.256 E.01846
G1 X136.486 Y62.134 E.09476
G1 X135.949 Y62.134 E.01695
G1 X138.043 Y64.228 E.0935
G1 X137.506 Y64.228 E.01695
G1 X135.412 Y62.134 E.0935
G1 X134.875 Y62.134 E.01695
G1 X136.969 Y64.228 E.0935
G1 X136.432 Y64.228 E.01695
G1 X134.338 Y62.134 E.0935
G1 X133.801 Y62.134 E.01695
G1 X135.895 Y64.228 E.0935
G1 X135.358 Y64.228 E.01695
G1 X133.264 Y62.134 E.0935
G1 X132.727 Y62.134 E.01695
G1 X134.821 Y64.228 E.0935
G1 X134.284 Y64.228 E.01695
G1 X132.19 Y62.134 E.0935
G1 X131.653 Y62.134 E.01695
G1 X133.747 Y64.228 E.0935
G1 X133.21 Y64.228 E.01695
G1 X131.116 Y62.134 E.0935
G1 X130.579 Y62.134 E.01695
G1 X132.674 Y64.228 E.0935
G1 X132.137 Y64.228 E.01695
G1 X130.042 Y62.134 E.0935
G1 X129.505 Y62.134 E.01695
G1 X131.6 Y64.228 E.0935
G1 X131.063 Y64.228 E.01695
G1 X128.968 Y62.134 E.0935
G1 X128.432 Y62.134 E.01695
G1 X130.526 Y64.228 E.0935
G1 X129.989 Y64.228 E.01695
G1 X127.895 Y62.134 E.0935
G1 X127.358 Y62.134 E.01695
G1 X129.452 Y64.228 E.0935
G1 X128.915 Y64.228 E.01695
G1 X126.821 Y62.134 E.0935
G1 X126.284 Y62.134 E.01695
G1 X128.378 Y64.228 E.0935
G1 X127.841 Y64.228 E.01695
G1 X125.747 Y62.134 E.0935
G1 X125.21 Y62.134 E.01695
G1 X127.304 Y64.228 E.0935
G1 X126.767 Y64.228 E.01695
G1 X124.673 Y62.134 E.0935
G1 X124.136 Y62.134 E.01695
G1 X126.23 Y64.228 E.0935
G1 X125.693 Y64.228 E.01695
G1 X123.599 Y62.134 E.0935
G1 X123.062 Y62.134 E.01695
G1 X125.156 Y64.228 E.0935
G1 X124.619 Y64.228 E.01695
G1 X122.525 Y62.134 E.0935
G1 X121.988 Y62.134 E.01695
G1 X124.083 Y64.228 E.0935
G1 X123.546 Y64.228 E.01695
G1 X121.451 Y62.134 E.0935
G1 X120.914 Y62.134 E.01695
G1 X123.009 Y64.228 E.0935
G1 X122.472 Y64.228 E.01695
G1 X120.377 Y62.134 E.0935
G1 X119.841 Y62.134 E.01695
G1 X121.935 Y64.228 E.0935
G1 X121.434 Y64.265 E.01584
G1 X119.304 Y62.134 E.09513
G1 X118.767 Y62.134 E.01695
G1 X120.937 Y64.304 E.09688
G1 X120.439 Y64.343 E.01576
G1 X118.23 Y62.134 E.09863
G1 X117.693 Y62.134 E.01695
G1 X119.941 Y64.382 E.10038
G1 X119.443 Y64.421 E.01576
G1 X117.156 Y62.134 E.10213
G1 X116.619 Y62.134 E.01695
G1 X118.946 Y64.461 E.10388
G1 X118.461 Y64.513 E.01539
G1 X116.082 Y62.134 E.10622
G1 X115.545 Y62.134 E.01695
G1 X118.028 Y64.617 E.11086
G1 X117.595 Y64.721 E.01406
G1 X115.008 Y62.134 E.1155
G1 X114.471 Y62.134 E.01695
G1 X117.162 Y64.825 E.12014
G1 X116.729 Y64.929 E.01406
G1 X113.934 Y62.134 E.12478
G1 X113.397 Y62.134 E.01695
G1 X116.296 Y65.033 E.12942
G1 X115.863 Y65.137 E.01406
G1 X112.86 Y62.134 E.13406
G1 X112.323 Y62.134 E.01695
G1 X115.43 Y65.241 E.1387
G1 X115.242 Y65.286 E.0061
G1 X115.027 Y65.375 E.00735
G1 X111.786 Y62.134 E.14469
G1 X111.25 Y62.134 E.01695
G1 X114.648 Y65.532 E.15171
G1 X114.268 Y65.689 E.01297
G1 X110.713 Y62.134 E.15874
G1 X110.176 Y62.134 E.01695
G1 X113.888 Y65.847 E.16576
G1 X113.509 Y66.004 E.01297
G1 X109.639 Y62.134 E.17278
G1 X109.102 Y62.134 E.01695
G1 X113.129 Y66.161 E.1798
G1 X112.749 Y66.318 E.01297
G1 X108.565 Y62.134 E.18682
G1 X108.028 Y62.134 E.01695
G1 X112.37 Y66.476 E.19384
G1 X112.1 Y66.587 E.00921
G1 X112.004 Y66.647 E.00357
G1 X107.491 Y62.134 E.20147
G1 X106.954 Y62.134 E.01695
G1 X111.671 Y66.851 E.21058
G1 X111.338 Y67.055 E.01233
G1 X106.417 Y62.134 E.21969
G1 X105.88 Y62.134 E.01695
G1 X111.005 Y67.259 E.22879
G1 X110.672 Y67.463 E.01233
G1 X105.343 Y62.134 E.2379
G1 X104.806 Y62.134 E.01695
G1 X110.339 Y67.667 E.24701
G1 X110.006 Y67.871 E.01233
G1 X104.269 Y62.134 E.25612
G1 X104.174 Y62.134 E.00302
G1 X104.173 Y62.575 E.01392
G1 X109.673 Y68.075 E.24554
G1 X109.34 Y68.279 E.01233
G1 X104.173 Y63.111 E.23071
G1 X104.172 Y63.648 E.01693
G1 X109.032 Y68.508 E.21699
G1 X108.743 Y68.755 E.01202
G1 X104.172 Y64.184 E.20409
G1 X104.171 Y64.72 E.01693
G1 X108.453 Y69.002 E.19119
G1 X108.164 Y69.25 E.01202
G1 X104.17 Y65.257 E.17828
G1 X104.17 Y65.793 E.01693
G1 X107.874 Y69.497 E.16538
G1 X107.584 Y69.744 E.01202
G1 X104.169 Y66.329 E.15248
G1 X104.168 Y66.865 E.01693
G1 X107.295 Y69.992 E.13958
G1 X107.005 Y70.239 E.01202
G1 X104.168 Y67.402 E.12668
G1 X104.167 Y67.938 E.01693
G1 X106.716 Y70.486 E.11377
G1 X106.614 Y70.573 E.00423
G1 X106.453 Y70.761 E.0078
G1 X104.167 Y68.474 E.1021
G1 X104.166 Y69.011 E.01693
G1 X106.206 Y71.051 E.09108
G1 X105.959 Y71.34 E.01202
G1 X104.165 Y69.547 E.08007
G1 X104.165 Y70.083 E.01693
G1 X105.711 Y71.63 E.06905
G1 X105.464 Y71.92 E.01202
G1 X104.164 Y70.62 E.05803
G1 X104.164 Y71.156 E.01693
G1 X105.217 Y72.209 E.04702
G1 X104.969 Y72.499 E.01202
G1 X104.163 Y71.692 E.036
G1 X104.162 Y72.229 E.01693
G1 X104.722 Y72.788 E.02499
G1 X104.475 Y73.078 E.01202
G1 X104.162 Y72.765 E.01397
G1 X104.161 Y73.301 E.01693
G1 X104.383 Y73.523 E.00989
M204 S1000
;WIPE_START
G1 F8640
G1 X104.161 Y73.301 E-.07235
G1 X104.162 Y72.765 E-.12384
G1 X104.475 Y73.078 E-.1022
G1 X104.722 Y72.788 E-.08794
G1 X104.162 Y72.229 E-.18277
G1 X104.163 Y71.692 E-.12384
G1 X104.368 Y71.898 E-.06707
;WIPE_END
G1 E-.04 F2100
G1 Z.6 F720
G1 X103.558 Y141.518 F10800
G1 Z.2 F720
G1 E.8 F2100
M204 S800
;TYPE:Gap fill
;WIDTH:0.113034
G1 F1200
G1 X103.58 Y141.588 E.00043
M204 S1000
M204 S800
;WIDTH:0.159244
G1 X103.634 Y141.731 E.00148
M204 S1000
M204 S800
;WIDTH:0.159244
G1 X103.715 Y141.837 E.00129
M204 S1000
M204 S800
;WIDTH:0.126282
G1 X103.795 Y141.944 E.00092
M204 S1000
;WIPE_START
G1 F8640
G1 X103.715 Y141.837 E-.03081
;WIPE_END
G1 E-.76919 F2100
G1 Z.6 F720
G1 X144.75 Y142.459 F10800
G1 Z.2 F720
G1 E.8 F2100
M204 S800
;TYPE:Solid infill
;WIDTH:0.421905
G1 F1200
M73 Q1 S67
G1 X144.915 Y142.624 E.00737
G1 X144.913 Y143.157 E.01681
G1 X144.623 Y142.868 E.0129
G1 X144.377 Y143.157 E.01198
G1 X144.91 Y143.691 E.02378
G1 X144.908 Y144.224 E.01681
G1 X144.102 Y143.418 E.03592
G1 X143.812 Y143.665 E.01198
G1 X144.884 Y144.737 E.04777
G1 X144.862 Y145.026 E.00914
G1 X144.818 Y145.207 E.00586
G1 X143.523 Y143.912 E.05771
G1 X143.229 Y144.154 E.012
G1 X144.702 Y145.627 E.06563
G1 X144.545 Y146.006 E.01293
G1 X142.897 Y144.358 E.07345
G1 X142.565 Y144.561 E.01228
G1 X144.344 Y146.341 E.0793
G1 X144.261 Y146.477 E.00502
G1 X144.115 Y146.647 E.00708
G1 X142.233 Y144.765 E.08389
G1 X142.115 Y144.837 E.00434
G1 X141.87 Y144.938 E.00836
G1 X143.86 Y146.928 E.08866
G1 X143.57 Y147.175 E.01198
G1 X141.491 Y145.095 E.09267
G1 X141.112 Y145.252 E.01293
