; generated by PrusaSlicer 2.4.2 on 2022-10-10 at 19:02:54 UTC

; 

; external perimeters extrusion width = 0.60mm
; perimeters extrusion width = 0.50mm
; infill extrusion width = 0.50mm
; solid infill extrusion width = 0.50mm
; top infill extrusion width = 0.45mm
; first layer extrusion width = 0.42mm

M73 P0 R60
M73 Q0 S60
M201 X1000 Y1000 Z200 E5000 ; sets maximum accelerations, mm/sec^2
M203 X200 Y200 Z12 E120 ; sets maximum feedrates, mm / sec
M204 P1250 R1250 T1250 ; sets acceleration (P, T) and retract acceleration (R), mm/sec^2
M205 X8.00 Y8.00 Z0.40 E4.50 ; sets the jerk limits, mm/sec
M205 S0 T0 ; sets the minimum extruding and travel feed rate, mm/sec
M107
;TYPE:Custom
M862.3 P "MK3S" ; printer model check
M862.1 P0.4 ; nozzle diameter check
M115 U3.10.1 ; tell printer latest fw version
G90 ; use absolute coordinates
M83 ; extruder relative mode
M104 S215 ; set extruder temp
M140 S60 ; set bed temp
M190 S60 ; wait for bed temp
M109 S215 ; wait for extruder temp
G28 W ; home all without mesh bed level
G80 ; mesh bed leveling
G1 Z0.2 F720
G1 Y-3 F1000 ; go outside print area
G92 E0
G1 X60 E9 F1000 ; intro line
G1 X100 E12.5 F1000 ; intro line
G92 E0
M221 S95

; Don't change E values below. Excessive value can damage the printer.

M907 E538 ; set extruder motor current
G21 ; set units to millimeters
G90 ; use absolute coordinates
M83 ; use relative distances for extrusion
M900 K0.05 ; Filament gcode LA 1.5
M900 K30 ; Filament gcode LA 1.0
M107
;LAYER_CHANGE
;Z:0.2
;HEIGHT:0.2
;BEFORE_LAYER_CHANGE
G92 E0.0
;0.2


G1 E-.8 F2100
G1 Z.4 F720
;AFTER_LAYER_CHANGE
;0.2
G1 X104.268 Y67.924 F10800
G1 Z.2 F720
M73 P0 R59
G1 E.8 F2100
M204 S800
;TYPE:Skirt/Brim
;WIDTH:0.42
G1 F1200
G1 X107.034 Y64.73 E.13247
G1 X110.266 Y62.009 E.13247
G1 X113.883 Y59.826 E.13247
G1 X117.443 Y58.352 E.12081
G1 X121.544 Y57.337 E.13247
G1 X125.754 Y56.976 E.13247
G1 X141.727 Y56.976 E.50082
G1 X143.058 Y57.111 E.04195
G1 X143.997 Y57.336 E.03028
G1 X145.244 Y57.821 E.04195
G1 X146.4 Y58.495 E.04195
G1 X147.436 Y59.341 E.04195
G1 X148.326 Y60.339 E.04195
G1 X149.05 Y61.464 E.04195
G1 X149.589 Y62.689 E.04195
G1 X149.988 Y64.351 E.0536
G1 X150.071 Y65.5 E.03613
G1 X150.071 Y144.5 E2.47699
G1 X149.93 Y146.018 E.04779
G1 X149.589 Y147.311 E.04195
G1 X149.22 Y148.203 E.03028
G1 X148.326 Y149.661 E.0536
G1 X147.436 Y150.659 E.04195
G1 X146.701 Y151.286 E.03028
G1 X145.576 Y152.01 E.04195
G1 X144.352 Y152.549 E.04195
G1 X142.69 Y152.948 E.0536
G1 X141.54 Y153.031 E.03613
G1 X101.397 Y153.031 E1.25868
G1 X99.902 Y152.503 E.04969
G1 X99.122 Y151.369 E.04316
G1 X99.01 Y150.646 E.02293
G1 X99.009 Y83.9 E2.09277
G1 X99.377 Y79.504 E.13832
G1 X100.392 Y75.403 E.13247
G1 X101.867 Y71.843 E.12081
G1 X104.237 Y67.975 E.14224
M204 S1000
; printing object rei-mug-handle.stl id:0 copy 0
;WIPE_START
G1 F8640
G1 X106.386 Y65.482 E-.76
;WIPE_END
G1 E-.04 F2100
G1 Z.6 F720
G1 X145.194 Y143.121 F10800
G1 Z.2 F720
G1 E.8 F2100
M204 S800
;TYPE:Perimeter
G1 F1200
G1 X145.189 Y144.468 E.04225
G1 X145.142 Y145.07 E.01894
G1 X145.008 Y145.627 E.01794
G1 X144.789 Y146.155 E.01794
G1 X144.49 Y146.643 E.01794
G1 X144.119 Y147.078 E.01794
G1 X143.684 Y147.45 E.01794
G1 X143.196 Y147.749 E.01794
G1 X142.667 Y147.968 E.01794
G1 X142.111 Y148.101 E.01794
G1 X141.509 Y148.149 E.01891
G1 X103.891 Y148.149 E1.1795
G1 X103.886 Y141.659 E.20348
G1 X103.872 Y141.405 E.00798
G1 X104.234 Y141.86 E.01824
G1 X105.129 Y142.911 E.04328
G1 X106.886 Y144.412 E.07245
G1 X108.856 Y145.619 E.07244
G1 X110.991 Y146.503 E.07244
G1 X113.237 Y147.042 E.07244
G1 X115.509 Y147.221 E.07147
G1 X138.238 Y147.221 E.71264
G1 X139.467 Y147.124 E.03867
G1 X140.697 Y146.829 E.03964
G1 X141.865 Y146.345 E.03964
G1 X142.943 Y145.685 E.03964
G1 X143.904 Y144.864 E.03964
G1 X144.727 Y143.9 E.03974
G1 X145.163 Y143.172 E.0266
M204 S1000
;WIPE_START
G1 F8640
G1 X145.189 Y144.468 E-.2993
G1 X145.142 Y145.07 E-.1395
G1 X145.008 Y145.627 E-.13212
G1 X144.789 Y146.155 E-.13212
G1 X144.66 Y146.366 E-.05696
;WIPE_END
G1 E-.04 F2100
G1 Z.6 F720
G1 X103.314 Y139.537 F10800
G1 Z.2 F720
G1 E.8 F2100
M204 S800
;TYPE:External perimeter
G1 F1200
G1 X103.622 Y140.039 E.01847
G1 X103.96 Y140.88 E.02842
G1 X104.241 Y141.273 E.01513
G1 X105.397 Y142.644 E.05621
G1 X107.108 Y144.106 E.07058
G1 X109.028 Y145.282 E.07058
G1 X111.107 Y146.143 E.07058
G1 X113.296 Y146.669 E.07058
G1 X115.524 Y146.844 E.07007
G1 X138.223 Y146.844 E.71171
G1 X139.408 Y146.751 E.03727
G1 X140.58 Y146.469 E.03778
G1 X141.693 Y146.008 E.03778
G1 X142.72 Y145.379 E.03778
G1 X143.637 Y144.596 E.03778
G1 X144.42 Y143.679 E.03781
G1 X145.043 Y142.639 E.03801
G1 X145.175 Y142.233 E.01339
G1 X145.271 Y141.847 E.01248
G1 X145.413 Y141.087 E.02424
G1 X145.593 Y140.336 E.02419
G1 X145.684 Y139.175 E.03653
G1 X145.684 Y67.825 E2.23712
G1 X145.593 Y66.664 E.03653
G1 X145.414 Y65.916 E.02409
G1 X145.353 Y65.535 E.0121
G1 X145.153 Y64.776 E.02462
G1 X145.026 Y64.372 E.01326
G1 X144.418 Y63.32 E.03809
G1 X143.879 Y62.724 E.02522
G1 X143.581 Y62.429 E.01315
G1 X142.591 Y61.777 E.03715
G1 X141.806 Y61.296 E.02886
G1 X142.201 Y61.327 E.01242
G1 X142.831 Y61.479 E.02034
G1 X143.389 Y61.804 E.02022
G1 X143.909 Y62.193 E.02038
G1 X144.383 Y62.641 E.02043
G1 X144.796 Y63.134 E.02018
G1 X145.134 Y63.678 E.02008
G1 X145.405 Y64.271 E.02044
G1 X145.61 Y64.886 E.02034
G1 X145.739 Y65.529 E.02056
G1 X145.766 Y66.006 E.01498
G1 X145.766 Y140.994 E2.35119
G1 X145.738 Y141.479 E.01524
M73 P1 R59
M73 Q1 S60
G1 X145.597 Y142.48 E.03169
G1 X145.571 Y142.994 E.01615
G1 X145.566 Y144.484 E.04669
G1 X145.515 Y145.13 E.02032
G1 X145.368 Y145.744 E.0198
G1 X145.126 Y146.327 E.0198
G1 X144.796 Y146.866 E.0198
G1 X144.386 Y147.346 E.0198
G1 X143.906 Y147.756 E.0198
G1 X143.368 Y148.086 E.0198
G1 X142.784 Y148.328 E.0198
G1 X142.17 Y148.475 E.0198
G1 X141.524 Y148.526 E.02031
G1 X103.514 Y148.526 E1.19177
G1 X103.509 Y141.67 E.21496
M73 Q1 S59
G1 X103.48 Y141.169 E.01574
G1 X103.314 Y140.208 E.03057
G1 X103.314 Y139.597 E.01916
M204 S1000
G1 X103.47 Y139.905 F10800
G1 X103.578 Y140.496
M204 S800
;TYPE:Gap fill
;WIDTH:0.128427
G1 F1200
G1 X103.626 Y140.664 E.00124
M204 S1000
M204 S800
;WIDTH:0.163535
G1 X103.674 Y140.832 E.00175
M204 S1000
M204 S800
;WIDTH:0.198642
G1 X103.722 Y141 E.00226
M204 S1000
M204 S800
;WIDTH:0.204927
G1 X103.802 Y141.23 E.00327
M204 S1000
;WIPE_START
G1 F8640
G1 X103.722 Y141 E-.05607
;WIPE_END
G1 E-.74393 F2100
G1 Z.6 F720
G1 X144.66 Y144.153 F10800
G1 Z.2 F720
G1 E.8 F2100
M204 S800
;TYPE:Solid infill
;WIDTH:0.420409
G1 F1200
G1 X144.907 Y144.399 E.01095
G1 X144.872 Y144.898 E.0157
G1 X144.534 Y144.561 E.01497
G1 X144.289 Y144.849 E.01189
G1 X144.785 Y145.345 E.02204
G1 X144.738 Y145.539 E.00625
G1 X144.652 Y145.747 E.00706
G1 X144.032 Y145.126 E.02754
G1 X143.744 Y145.372 E.01189
G1 X144.484 Y146.112 E.03285
G1 X144.281 Y146.443 E.01219
G1 X143.456 Y145.618 E.03663
G1 X143.168 Y145.864 E.01189
G1 X144.04 Y146.736 E.03868
G1 X143.918 Y146.878 E.00587
G1 X143.773 Y147.002 E.00601
G1 X142.846 Y146.076 E.04113
G1 X142.515 Y146.279 E.01219
G1 X143.48 Y147.243 E.04282
G1 X143.149 Y147.446 E.01219
G1 X142.184 Y146.481 E.04282
G1 X141.994 Y146.598 E.00701
G1 X141.833 Y146.664 E.00545
G1 X142.783 Y147.614 E.04215
G1 X142.58 Y147.698 E.0069
G1 X142.381 Y147.746 E.00642
G1 X141.456 Y146.821 E.04106
G1 X141.078 Y146.977 E.01282
G1 X141.933 Y147.832 E.03794
G1 X141.498 Y147.866 E.01368
G1 X141.433 Y147.866 E.00204
G1 X140.689 Y147.122 E.03303
G1 X140.259 Y147.225 E.0139
G1 X140.899 Y147.866 E.02845
G1 X140.366 Y147.866 E.01676
G1 X139.828 Y147.329 E.02386
G1 X139.512 Y147.404 E.01021
G1 X139.38 Y147.415 E.00413
G1 X139.832 Y147.866 E.02003
G1 X139.298 Y147.866 E.01676
G1 X138.886 Y147.454 E.0183
G1 X138.391 Y147.493 E.01558
G1 X138.764 Y147.866 E.01657
G1 X138.23 Y147.866 E.01676
G1 X137.868 Y147.504 E.01608
G1 X137.334 Y147.504 E.01676
G1 X137.696 Y147.866 E.01608
G1 X137.162 Y147.866 E.01676
G1 X136.8 Y147.504 E.01608
G1 X136.266 Y147.504 E.01676
G1 X136.629 Y147.866 E.01608
G1 X136.095 Y147.866 E.01676
G1 X135.733 Y147.504 E.01608
G1 X135.199 Y147.504 E.01676
G1 X135.561 Y147.866 E.01608
G1 X135.027 Y147.866 E.01676
G1 X134.665 Y147.504 E.01608
G1 X134.131 Y147.504 E.01676
G1 X134.493 Y147.866 E.01608
G1 X133.959 Y147.866 E.01676
G1 X133.597 Y147.504 E.01608
G1 X133.063 Y147.504 E.01676
G1 X133.425 Y147.866 E.01608
G1 X132.892 Y147.866 E.01676
G1 X132.529 Y147.504 E.01608
G1 X131.996 Y147.504 E.01676
G1 X132.358 Y147.866 E.01608
G1 X131.824 Y147.866 E.01676
G1 X131.462 Y147.504 E.01608
G1 X130.928 Y147.504 E.01676
G1 X131.29 Y147.866 E.01608
G1 X130.756 Y147.866 E.01676
G1 X130.394 Y147.504 E.01608
G1 X129.86 Y147.504 E.01676
G1 X130.222 Y147.866 E.01608
G1 X129.689 Y147.866 E.01676
G1 X129.326 Y147.504 E.01608
G1 X128.792 Y147.504 E.01676
G1 X129.155 Y147.866 E.01608
G1 X128.621 Y147.866 E.01676
G1 X128.259 Y147.504 E.01608
G1 X127.725 Y147.504 E.01676
G1 X128.087 Y147.866 E.01608
G1 X127.553 Y147.866 E.01676
G1 X127.191 Y147.504 E.01608
G1 X126.657 Y147.504 E.01676
G1 X127.019 Y147.866 E.01608
G1 X126.485 Y147.866 E.01676
G1 X126.123 Y147.504 E.01608
G1 X125.589 Y147.504 E.01676
G1 X125.952 Y147.866 E.01608
G1 X125.418 Y147.866 E.01676
G1 X125.056 Y147.504 E.01608
G1 X124.522 Y147.504 E.01676
G1 X124.884 Y147.866 E.01608
G1 X124.35 Y147.866 E.01676
G1 X123.988 Y147.504 E.01608
G1 X123.454 Y147.504 E.01676
G1 X123.816 Y147.866 E.01608
G1 X123.282 Y147.866 E.01676
G1 X122.92 Y147.504 E.01608
G1 X122.386 Y147.504 E.01676
G1 X122.748 Y147.866 E.01608
G1 X122.215 Y147.866 E.01676
G1 X121.852 Y147.504 E.01608
G1 X121.319 Y147.504 E.01676
G1 X121.681 Y147.866 E.01608
G1 X121.147 Y147.866 E.01676
G1 X120.785 Y147.504 E.01608
G1 X120.251 Y147.504 E.01676
G1 X120.613 Y147.866 E.01608
G1 X120.079 Y147.866 E.01676
G1 X119.717 Y147.504 E.01608
G1 X119.183 Y147.504 E.01676
G1 X119.545 Y147.866 E.01608
G1 X119.012 Y147.866 E.01676
G1 X118.649 Y147.504 E.01608
G1 X118.115 Y147.504 E.01676
G1 X118.478 Y147.866 E.01608
G1 X117.944 Y147.866 E.01676
G1 X117.582 Y147.504 E.01608
G1 X117.048 Y147.504 E.01676
G1 X117.41 Y147.866 E.01608
G1 X116.876 Y147.866 E.01676
G1 X116.514 Y147.504 E.01608
G1 X115.98 Y147.504 E.01676
G1 X116.342 Y147.866 E.01608
G1 X115.808 Y147.866 E.01676
G1 X115.442 Y147.499 E.01627
G1 X114.862 Y147.454 E.01824
G1 X115.275 Y147.866 E.0183
G1 X114.741 Y147.866 E.01676
G1 X114.283 Y147.408 E.02032
G1 X113.703 Y147.363 E.01824
G1 X114.207 Y147.866 E.02235
G1 X113.673 Y147.866 E.01676
G1 X113.109 Y147.302 E.02502
G1 X112.407 Y147.134 E.02268
G1 X113.139 Y147.866 E.03251
G1 X112.605 Y147.866 E.01676
G1 X111.704 Y146.965 E.03999
G1 X111.002 Y146.796 E.02268
G1 X112.071 Y147.866 E.04748
G1 X111.538 Y147.866 E.01676
G1 X110.12 Y146.448 E.06293
G1 X109.209 Y146.071 E.03096
G1 X111.004 Y147.866 E.07969
G1 X110.47 Y147.866 E.01676
G1 X108.077 Y145.473 E.10623
G1 X106.663 Y144.592 E.05229
G1 X109.936 Y147.866 E.14531
G1 X109.402 Y147.866 E.01676
G1 X104.17 Y142.634 E.23227
G1 X104.17 Y143.168 E.01677
G1 X108.868 Y147.866 E.20855
G1 X108.335 Y147.866 E.01676
G1 X104.171 Y143.702 E.18484
G1 X104.171 Y144.236 E.01677
G1 X107.801 Y147.866 E.16112
G1 X107.267 Y147.866 E.01676
G1 X104.171 Y144.771 E.13741
G1 X104.172 Y145.305 E.01677
G1 X106.733 Y147.866 E.11369
G1 X106.199 Y147.866 E.01676
G1 X104.172 Y145.839 E.08998
G1 X104.173 Y146.373 E.01677
G1 X105.665 Y147.866 E.06626
G1 X105.131 Y147.866 E.01676
G1 X104.173 Y146.908 E.04255
G1 X104.173 Y147.442 E.01677
G1 X104.767 Y148.036 E.02636
M204 S1000
;WIPE_START
G1 F8640
G1 X104.173 Y147.442 E-.19393
G1 X104.173 Y146.908 E-.12336
G1 X105.131 Y147.866 E-.31298
G1 X105.665 Y147.866 E-.12327
G1 X105.645 Y147.846 E-.00647
;WIPE_END
G1 E-.04 F2100
G1 Z.6 F720
G1 X145.255 Y142.942 F10800
G1 Z.2 F720
G1 E.8 F2100
M204 S800
;TYPE:Gap fill
;WIDTH:0.234967
G1 F1200
G1 X145.303 Y142.746 E.00322
M204 S1000
M204 S800
;WIDTH:0.226889
G1 X145.329 Y142.603 E.00223
M204 S1000
M204 S800
;WIDTH:0.188532
G1 X145.356 Y142.459 E.00176
M204 S1000
M204 S800
;WIDTH:0.150174
G1 X145.357 Y142.455 E.00004
M204 S1000
M204 S800
;WIDTH:0.149114
G1 X145.393 Y142.297 E.00143
M204 S1000
M204 S800
;WIDTH:0.121015
G1 X145.394 Y142.294 E.00002
M204 S1000
M204 S800
;WIDTH:0.120637
G1 X145.449 Y142.012 E.00186
M204 S1000
;WIPE_START
G1 F8640
G1 X145.394 Y142.294 E-.06644
;WIPE_END
G1 E-.73356 F2100
G1 Z.6 F720
G1 X145.015 Y63.928 F10800
G1 Z.2 F720
G1 E.8 F2100
M204 S800
;WIDTH:0.106361
G1 F1200
G1 X144.939 Y63.782 E.00087
M204 S1000
M204 S800
;WIDTH:0.106361
G1 X144.713 Y63.403 E.00233
M204 S1000
G1 X144.27 Y62.838 F10800
M204 S800
;WIDTH:0.0948088
G1 F1200
G1 X144.226 Y62.788 E.00028
M204 S1000
M204 S800
;WIDTH:0.094808
G1 X144.195 Y62.756 E.00019
M204 S1000
;WIPE_START
G1 F8640
G1 X144.226 Y62.788 E-.01022
;WIPE_END
G1 E-.78978 F2100
G1 Z.6 F720
G1 X125.053 Y61.923 F10800
G1 Z.2 F720
G1 E.8 F2100
M204 S800
;TYPE:Perimeter
;WIDTH:0.42
G1 F1200
G1 X120.65 Y63.735 E.14928
G1 X115.79 Y66.714 E.17873
G1 X111.456 Y70.415 E.17871
G1 X107.754 Y74.75 E.17871
G1 X104.776 Y79.61 E.17873
G1 X104.093 Y81.265 E.05614
G1 X104.165 Y80.454 E.02554
G1 X104.973 Y77.087 E.10856
G1 X106.297 Y73.891 E.10847
G1 X108.104 Y70.941 E.10847
G1 X110.351 Y68.311 E.10847
G1 X112.982 Y66.064 E.10847
G1 X115.932 Y64.257 E.10847
G1 X119.128 Y62.933 E.10847
G1 X122.492 Y62.125 E.10847
G1 X124.993 Y61.928 E.07869
M204 S1000
;WIPE_START
G1 F8640
G1 X121.955 Y63.192 E-.76
;WIPE_END
G1 E-.04 F2100
G1 Z.6 F720
G1 X129.552 Y61.275 F10800
G1 Z.2 F720
G1 E.8 F2100
M204 S800
;TYPE:External perimeter
G1 F1200
G1 X128.002 Y61.647 E.04999
G1 X126.562 Y61.833 E.04552
G1 X126.043 Y61.924 E.01651
G1 X120.822 Y64.072 E.17703
G1 X116.012 Y67.02 E.17686
G1 X111.723 Y70.683 E.17685
G1 X108.06 Y74.972 E.17685
G1 X105.113 Y79.781 E.17686
G1 X104.213 Y81.963 E.074
G1 X104.05 Y82.413 E.01499
G1 X103.68 Y83.763 E.04391
G1 X103.314 Y84.646 E.02994
G1 X103.314 Y83.912 E.02301
G1 X103.362 Y83.49 E.01333
G1 X103.559 Y82.612 E.0282
G1 X103.636 Y82.155 E.01454
G1 X103.792 Y80.393 E.05546
G1 X104.613 Y76.97 E.11036
G1 X105.96 Y73.719 E.11033
G1 X107.798 Y70.719 E.11033
G1 X110.084 Y68.043 E.11033
G1 X112.76 Y65.758 E.11033
G1 X115.76 Y63.92 E.11033
G1 X119.011 Y62.573 E.11033
G1 X122.432 Y61.751 E.11033
G1 X126.45 Y61.435 E.12636
G1 X127.911 Y61.276 E.0461
G1 X129.492 Y61.275 E.04955
M204 S1000
G1 X129.158 Y61.344 F10800
;WIPE_START
G1 F8640
G1 X128.002 Y61.647 E-.35467
G1 X126.562 Y61.833 E-.33522
G1 X126.263 Y61.885 E-.07011
;WIPE_END
G1 E-.04 F2100
G1 Z.6 F720
G1 X126.33 Y61.657 F10800
G1 Z.2 F720
G1 E.8 F2100
M204 S800
;TYPE:Gap fill
;WIDTH:0.124122
G1 F1200
G1 X125.983 Y61.701 E.00236
M204 S1000
M204 S800
;WIDTH:0.125942
G1 X125.974 Y61.703 E.00006
M204 S1000
M204 S800
;WIDTH:0.174115
G1 X125.79 Y61.747 E.00207
M204 S1000
M204 S800
;WIDTH:0.222291
G1 X125.606 Y61.791 E.00283
M204 S1000
M204 S800
;WIDTH:0.270466
G1 X125.421 Y61.835 E.00359
M204 S1000
M204 S800
;WIDTH:0.318642
G1 X125.237 Y61.879 E.00435
M204 S1000
;WIPE_START
G1 F8640
G1 X125.421 Y61.835 E-.04378
;WIPE_END
G1 E-.75622 F2100
G1 Z.6 F720
G1 X123.739 Y62.237 F10800
G1 Z.2 F720
G1 E.8 F2100
M204 S800
;WIDTH:0.138384
G1 F1200
G1 X123.566 Y62.279 E.00141
M204 S1000
M204 S800
;WIDTH:0.183448
G1 X123.393 Y62.32 E.00208
M204 S1000
M204 S800
;WIDTH:0.228513
G1 X123.22 Y62.361 E.00274
M204 S1000
M204 S800
;WIDTH:0.273577
G1 X123.047 Y62.402 E.00341
M204 S1000
M204 S800
;WIDTH:0.318642
G1 X122.874 Y62.444 E.00407
M204 S1000
G1 X122.06 Y62.345 F10800
M204 S800
;TYPE:Solid infill
;WIDTH:0.421217
G1 F1200
G1 X122.418 Y62.702 E.01589
G1 X122.039 Y62.858 E.01289
G1 X121.77 Y62.589 E.01196
G1 X121.338 Y62.693 E.01396
G1 X121.66 Y63.014 E.01429
G1 X121.281 Y63.17 E.01289
G1 X120.907 Y62.796 E.01662
G1 X120.475 Y62.9 E.01396
G1 X120.902 Y63.326 E.01896
G1 X120.523 Y63.482 E.01289
G1 X120.044 Y63.003 E.02129
G1 X119.613 Y63.107 E.01396
G1 X120.191 Y63.685 E.02572
G1 X119.859 Y63.888 E.01224
G1 X119.185 Y63.215 E.02997
G1 X118.807 Y63.372 E.01288
G1 X119.527 Y64.092 E.03204
G1 X119.196 Y64.295 E.01224
G1 X118.429 Y63.528 E.03411
G1 X118.051 Y63.685 E.01288
