; generated by PrusaSlicer 2.4.2 on 2022-08-14 at 21:45:06 UTC

; 

; external perimeters extrusion width = 0.60mm
; perimeters extrusion width = 0.50mm
; infill extrusion width = 0.50mm
; solid infill extrusion width = 0.50mm
; top infill extrusion width = 0.45mm
; first layer extrusion width = 0.42mm

M73 P0 R52
M73 Q0 S52
M201 X1000 Y1000 Z200 E5000 ; sets maximum accelerations, mm/sec^2
M203 X200 Y200 Z12 E120 ; sets maximum feedrates, mm / sec
M204 P1250 R1250 T1250 ; sets acceleration (P, T) and retract acceleration (R), mm/sec^2
M205 X8.00 Y8.00 Z0.40 E4.50 ; sets the jerk limits, mm/sec
M205 S0 T0 ; sets the minimum extruding and travel feed rate, mm/sec
M107
;TYPE:Custom
M862.3 P "MK3S" ; printer model check
M862.1 P0.4 ; nozzle diameter check
M115 U3.10.1 ; tell printer latest fw version
G90 ; use absolute coordinates
M83 ; extruder relative mode
M104 S215 ; set extruder temp
M140 S60 ; set bed temp
M190 S60 ; wait for bed temp
M109 S215 ; wait for extruder temp
G28 W ; home all without mesh bed level
G80 ; mesh bed leveling
G1 Z0.2 F720
G1 Y-3 F1000 ; go outside print area
G92 E0
G1 X60 E9 F1000 ; intro line
G1 X100 E12.5 F1000 ; intro line
G92 E0
M221 S95

; Don't change E values below. Excessive value can damage the printer.

M907 E538 ; set extruder motor current
G21 ; set units to millimeters
G90 ; use absolute coordinates
M83 ; use relative distances for extrusion
M900 K0.05 ; Filament gcode LA 1.5
M900 K30 ; Filament gcode LA 1.0
M107
;LAYER_CHANGE
;Z:0.2
;HEIGHT:0.2
;BEFORE_LAYER_CHANGE
G92 E0.0
;0.2


G1 E-.8 F2100
M73 P0 R51
G1 Z.4 F720
;AFTER_LAYER_CHANGE
;0.2
G1 X98.334 Y63.693 F10800
G1 Z.2 F720
G1 E.8 F2100
M204 S800
;TYPE:Skirt/Brim
;WIDTH:0.42
G1 F1200
G1 X99.38 Y62.817 E.04278
G1 X100.319 Y62.623 E.03008
G1 X145.784 Y62.624 E1.42553
G1 X146.831 Y62.723 E.03297
G1 X147.987 Y63.044 E.03763
G1 X149.063 Y63.577 E.03763
G1 X150.02 Y64.301 E.03763
G1 X150.822 Y65.189 E.0375
G1 X151.447 Y66.218 E.03775
G1 X151.865 Y67.335 E.0374
G1 X152.068 Y68.519 E.03766
G1 X152.087 Y141 E2.2726
G1 X152.026 Y141.873 E.02744
G1 X151.87 Y142.647 E.02474
G1 X151.615 Y143.405 E.0251
G1 X151.267 Y144.127 E.02511
G1 X150.831 Y144.799 E.02511
G1 X150.314 Y145.41 E.0251
G1 X149.716 Y145.96 E.02547
G1 X149.063 Y146.423 E.02511
G1 X148.357 Y146.801 E.02511
G1 X147.609 Y147.087 E.02511
G1 X146.831 Y147.277 E.0251
G1 X146.036 Y147.368 E.02511
G1 X100.319 Y147.377 E1.4334
G1 X99.012 Y146.985 E.04278
G1 X98.136 Y145.94 E.04278
G1 X97.942 Y145 E.03008
G1 X97.942 Y65 E2.50834
G1 X98.317 Y63.75 E.0409
M204 S1000
; printing object rei-mug-handle.stl id:0 copy 0
;WIPE_START
G1 F8640
G1 X99.38 Y62.817 E-.32671
G1 X100.319 Y62.623 E-.22155
G1 X101.236 Y62.623 E-.21174
;WIPE_END
G1 E-.04 F2100
G1 Z.6 F720
G1 X103.823 Y73.65 F10800
G1 Z.2 F720
G1 E.8 F2100
M204 S800
;TYPE:External perimeter
G1 F1200
G1 X104.707 Y73.108 E.03254
G1 X105.666 Y72.71 E.03254
G1 X106.675 Y72.468 E.03254
G1 X107.694 Y72.388 E.03203
G1 X135.726 Y72.388 E.87893
G1 X137.37 Y72.517 E.05171
G1 X138.989 Y72.906 E.05222
G1 X140.528 Y73.544 E.05222
G1 X141.948 Y74.414 E.05222
G1 X143.214 Y75.495 E.05222
G1 X144.296 Y76.762 E.05222
G1 X145.166 Y78.182 E.05222
G1 X145.803 Y79.72 E.05222
G1 X146.192 Y81.34 E.05222
G1 X146.322 Y82.984 E.05171
G1 X146.322 Y127.016 E1.3806
G1 X146.192 Y128.66 E.05171
G1 X145.803 Y130.28 E.05222
G1 X145.166 Y131.818 E.05222
G1 X144.296 Y133.238 E.05222
G1 X143.214 Y134.505 E.05222
G1 X142.145 Y135.418 E.04412
G1 X141.948 Y135.586 E.0081
G1 X140.528 Y136.456 E.05222
G1 X138.989 Y137.094 E.05222
G1 X137.37 Y137.483 E.05222
G1 X135.726 Y137.612 E.05171
G1 X111.694 Y137.612 E.75351
G1 X110.049 Y137.483 E.05171
G1 X108.43 Y137.094 E.05222
G1 X106.891 Y136.456 E.05222
G1 X105.471 Y135.586 E.05222
G1 X104.205 Y134.505 E.05222
G1 X103.123 Y133.238 E.05222
G1 X102.253 Y131.818 E.05222
G1 X101.616 Y130.28 E.05222
G1 X101.227 Y128.66 E.05223
G1 X101.102 Y127.016 E.05171
G1 X101.102 Y78.984 E1.50598
G1 X101.178 Y77.966 E.03202
G1 X101.42 Y76.956 E.03255
G1 X101.817 Y75.998 E.03254
G1 X102.36 Y75.113 E.03254
G1 X103.034 Y74.324 E.03254
G1 X103.777 Y73.689 E.03066
M204 S1000
G1 X103.781 Y73.252 F10800
G1 X103.532 Y73.402
M204 S800
;TYPE:Perimeter
G1 F1200
M73 P1 R51
G1 X102.766 Y74.056 E.03159
G1 X102.054 Y74.891 E.0344
G1 X101.48 Y75.826 E.0344
G1 X101.106 Y76.729 E.03064
M73 Q1 S52
G1 X101.106 Y65.787 E.34307
G1 X145.921 Y65.795 E1.40512
G1 X146.508 Y65.889 E.01867
G1 X146.892 Y66.014 E.01265
G1 X147.257 Y66.186 E.01265
G1 X147.598 Y66.402 E.01265
G1 X147.908 Y66.659 E.01265
G1 X148.184 Y66.952 E.01261
G1 X148.421 Y67.279 E.01268
G1 X148.616 Y67.633 E.01264
G1 X148.819 Y68.192 E.01867
G1 X148.896 Y68.597 E.01293
G1 X148.923 Y69.022 E.01332
G1 X148.923 Y140.978 E2.25616
G1 X148.896 Y141.403 E.01332
G1 X148.821 Y141.799 E.01264
G1 X148.696 Y142.182 E.01265
G1 X148.524 Y142.547 E.01265
G1 X148.308 Y142.888 E.01265
G1 X148.051 Y143.199 E.01264
G1 X147.757 Y143.475 E.01265
G1 X147.423 Y143.717 E.01294
G1 X146.892 Y143.986 E.01867
G1 X146.508 Y144.111 E.01265
G1 X146.112 Y144.186 E.01264
G1 X145.688 Y144.213 E.01332
G1 X101.106 Y144.213 E1.39783
G1 X101.106 Y129.772 E.45278
G1 X101.256 Y130.397 E.02013
G1 X101.916 Y131.99 E.05408
G1 X102.817 Y133.461 E.05408
G1 X103.938 Y134.772 E.05408
G1 X105.249 Y135.892 E.05408
G1 X106.72 Y136.793 E.05408
G1 X108.313 Y137.453 E.05408
G1 X109.99 Y137.856 E.05408
G1 X111.679 Y137.989 E.05311
G1 X135.741 Y137.989 E.75444
G1 X137.429 Y137.856 E.05311
M73 Q1 S51
G1 X139.106 Y137.453 E.05408
G1 X140.7 Y136.793 E.05408
G1 X142.17 Y135.892 E.05408
G1 X143.482 Y134.772 E.05408
G1 X144.602 Y133.461 E.05408
G1 X145.503 Y131.99 E.05408
G1 X146.163 Y130.397 E.05408
G1 X146.566 Y128.719 E.05408
G1 X146.699 Y127.031 E.05311
G1 X146.699 Y82.969 E1.38153
G1 X146.566 Y81.281 E.05311
G1 X146.163 Y79.603 E.05408
G1 X145.503 Y78.01 E.05408
G1 X144.602 Y76.539 E.05408
G1 X143.482 Y75.228 E.05408
G1 X142.17 Y74.108 E.05408
G1 X140.7 Y73.207 E.05408
G1 X139.106 Y72.547 E.05408
G1 X137.429 Y72.144 E.05408
G1 X135.741 Y72.011 E.05311
G1 X107.679 Y72.011 E.87986
G1 X106.616 Y72.095 E.03343
G1 X105.549 Y72.351 E.0344
G1 X104.536 Y72.771 E.0344
G1 X103.578 Y73.363 E.03532
M204 S1000
;WIPE_START
G1 F8640
G1 X102.766 Y74.056 E-.24647
G1 X102.054 Y74.891 E-.25332
G1 X101.48 Y75.826 E-.25332
G1 X101.469 Y75.854 E-.00689
;WIPE_END
G1 E-.04 F2100
G1 Z.6 F720
G1 X100.729 Y65.41 F10800
G1 Z.2 F720
G1 E.8 F2100
M204 S800
;TYPE:External perimeter
G1 F1200
G1 X145.938 Y65.418 E1.4175
G1 X146.156 Y65.438 E.00686
G1 X146.602 Y65.523 E.01424
G1 X147.031 Y65.663 E.01413
G1 X147.439 Y65.855 E.01413
G1 X147.82 Y66.096 E.01413
G1 X148.167 Y66.383 E.01413
G1 X148.475 Y66.711 E.0141
G1 X148.74 Y67.077 E.01417
G1 X148.958 Y67.472 E.01413
G1 X149.124 Y67.893 E.0142
G1 X149.186 Y68.104 E.0069
G1 X149.271 Y68.55 E.01423
G1 X149.3 Y69.01 E.01444
G1 X149.3 Y140.99 E2.2569
G1 X149.271 Y141.45 E.01444
G1 X149.186 Y141.893 E.01413
G1 X149.047 Y142.321 E.01413
G1 X148.855 Y142.729 E.01413
G1 X148.614 Y143.11 E.01413
G1 X148.326 Y143.457 E.01413
G1 X147.998 Y143.766 E.01413
G1 X147.63 Y144.033 E.01424
G1 X147.442 Y144.144 E.00686
G1 X147.031 Y144.337 E.01424
G1 X146.602 Y144.477 E.01413
G1 X146.16 Y144.561 E.01413
G1 X145.7 Y144.59 E.01444
G1 X100.729 Y144.59 E1.41003
G1 X100.729 Y65.47 E2.48075
M204 S1000
G1 X101.105 Y65.548 F10800
;WIPE_START
G1 F8640
G1 X104.021 Y65.466 E-.76
;WIPE_END
G1 E-.04 F2100
G1 Z.6 F720
G1 X101.075 Y76.915 F10800
G1 Z.2 F720
G1 E.8 F2100
M204 S800
;TYPE:Gap fill
;WIDTH:0.323875
G1 F1200
G1 X101.051 Y77.117 E.00477
M204 S1000
M204 S800
;WIDTH:0.282567
G1 X101.027 Y77.32 E.00407
M204 S1000
M204 S800
;WIDTH:0.241258
G1 X101.003 Y77.523 E.00337
M204 S1000
M204 S800
;WIDTH:0.19995
G1 X100.979 Y77.725 E.00266
M204 S1000
M204 S800
;WIDTH:0.158641
G1 X100.955 Y77.928 E.00196
M204 S1000
M204 S800
;WIDTH:0.11733
G1 X100.955 Y77.934 E.00004
M204 S1000
M204 S800
;WIDTH:0.116408
G1 X100.942 Y78.269 E.00205
M204 S1000
;WIPE_START
G1 F8640
M73 P2 R51
G1 X100.955 Y77.934 E-.07741
;WIPE_END
G1 E-.72259 F2100
G1 Z.6 F720
G1 X147.072 Y66.224 F10800
G1 Z.2 F720
M73 Q2 S51
G1 E.8 F2100
M204 S800
;TYPE:Solid infill
;WIDTH:0.42096
G1 F1200
G1 X147.965 Y67.133 E.04006
G1 X148.182 Y67.431 E.01159
G1 X148.359 Y67.753 E.01156
G1 X148.496 Y68.098 E.01167
G1 X148.52 Y68.206 E.00346
G1 X146.497 Y66.183 E.08993
G1 X145.857 Y66.077 E.02039
G1 X148.629 Y68.849 E.12322
G1 X148.64 Y69.395 E.01717
G1 X145.322 Y66.077 E.14749
G1 X144.787 Y66.077 E.01681
G1 X148.64 Y69.93 E.17126
G1 X148.64 Y70.464 E.01681
G1 X144.253 Y66.077 E.19503
G1 X143.718 Y66.077 E.01681
G1 X148.64 Y70.999 E.2188
G1 X148.64 Y71.534 E.01681
G1 X143.183 Y66.077 E.24257
G1 X142.648 Y66.077 E.01681
G1 X148.64 Y72.068 E.26634
G1 X148.64 Y72.603 E.01681
G1 X142.114 Y66.077 E.29012
G1 X141.579 Y66.077 E.01681
M73 P2 R50
G1 X148.64 Y73.138 E.31389
G1 X148.64 Y73.672 E.01681
G1 X141.044 Y66.077 E.33766
G1 X140.51 Y66.077 E.01681
G1 X148.64 Y74.207 E.36143
G1 X148.64 Y74.741 E.01681
G1 X139.975 Y66.076 E.3852
G1 X139.44 Y66.076 E.01681
G1 X148.64 Y75.276 E.40897
G1 X148.64 Y75.811 E.01681
G1 X138.905 Y66.076 E.43274
G1 X138.371 Y66.076 E.01681
G1 X148.64 Y76.345 E.45651
G1 X148.64 Y76.88 E.01681
G1 X137.836 Y66.076 E.48028
G1 X137.301 Y66.076 E.01681
G1 X148.64 Y77.415 E.50405
G1 X148.64 Y77.949 E.01681
G1 X136.767 Y66.076 E.52782
G1 X136.232 Y66.076 E.01681
G1 X148.64 Y78.484 E.55159
G1 X148.64 Y79.018 E.01681
G1 X135.697 Y66.076 E.57536
G1 X135.162 Y66.076 E.01681
G1 X148.64 Y79.553 E.59914
G1 X148.64 Y80.088 E.01681
G1 X134.628 Y66.076 E.62291
G1 X134.093 Y66.075 E.01681
G1 X141.197 Y73.18 E.31582
G1 X140.829 Y72.954 E.01359
G1 X140.16 Y72.677 E.02276
G1 X133.558 Y66.075 E.29346
G1 X133.024 Y66.075 E.01681
G1 X139.247 Y72.299 E.27666
G1 X138.531 Y72.118 E.02321
G1 X132.489 Y66.075 E.26861
G1 X131.954 Y66.075 E.01681
G1 X137.828 Y71.949 E.26111
G1 X137.474 Y71.864 E.01145
G1 X137.185 Y71.841 E.00909
G1 X131.419 Y66.075 E.25633
G1 X130.885 Y66.075 E.01681
G1 X136.605 Y71.795 E.2543
G1 X136.025 Y71.75 E.0183
G1 X130.35 Y66.075 E.25227
G1 X129.815 Y66.075 E.01681
G1 X135.469 Y71.728 E.25132
G1 X134.934 Y71.728 E.01681
G1 X129.281 Y66.075 E.25133
G1 X128.746 Y66.075 E.01681
G1 X134.399 Y71.728 E.25133
G1 X133.865 Y71.728 E.01681
G1 X128.211 Y66.074 E.25133
G1 X127.676 Y66.074 E.01681
G1 X133.33 Y71.728 E.25134
G1 X132.796 Y71.728 E.01681
G1 X127.142 Y66.074 E.25134
G1 X126.607 Y66.074 E.01681
G1 X132.261 Y71.728 E.25135
G1 X131.726 Y71.728 E.01681
G1 X126.072 Y66.074 E.25135
G1 X125.537 Y66.074 E.01681
G1 X131.192 Y71.728 E.25135
G1 X130.657 Y71.728 E.01681
G1 X125.003 Y66.074 E.25136
G1 X124.468 Y66.074 E.01681
G1 X130.122 Y71.728 E.25136
G1 X129.588 Y71.728 E.01681
G1 X123.933 Y66.074 E.25137
G1 X123.399 Y66.074 E.01681
G1 X129.053 Y71.728 E.25137
G1 X128.518 Y71.728 E.01681
G1 X122.864 Y66.074 E.25137
G1 X122.329 Y66.073 E.01681
G1 X127.984 Y71.728 E.25138
G1 X127.449 Y71.728 E.01681
G1 X121.794 Y66.073 E.25138
G1 X121.26 Y66.073 E.01681
G1 X126.915 Y71.728 E.25139
G1 X126.38 Y71.728 E.01681
G1 X120.725 Y66.073 E.25139
G1 X120.19 Y66.073 E.01681
G1 X125.845 Y71.728 E.25139
G1 X125.311 Y71.728 E.01681
G1 X119.656 Y66.073 E.2514
G1 X119.121 Y66.073 E.01681
G1 X124.776 Y71.728 E.2514
G1 X124.241 Y71.728 E.01681
G1 X118.586 Y66.073 E.25141
G1 X118.051 Y66.073 E.01681
G1 X123.707 Y71.728 E.25141
G1 X123.172 Y71.728 E.01681
G1 X117.517 Y66.073 E.25141
G1 X116.982 Y66.073 E.01681
G1 X122.638 Y71.728 E.25142
G1 X122.103 Y71.728 E.01681
G1 X116.447 Y66.073 E.25142
G1 X115.913 Y66.072 E.01681
G1 X121.568 Y71.728 E.25143
G1 X121.034 Y71.728 E.01681
G1 X115.378 Y66.072 E.25143
G1 X114.843 Y66.072 E.01681
G1 X120.499 Y71.728 E.25143
G1 X119.964 Y71.728 E.01681
M73 P3 R50
G1 X114.308 Y66.072 E.25144
G1 X113.774 Y66.072 E.01681
G1 X119.43 Y71.728 E.25144
M73 Q3 S51
G1 X118.895 Y71.728 E.01681
G1 X113.239 Y66.072 E.25145
G1 X112.704 Y66.072 E.01681
G1 X118.361 Y71.728 E.25145
G1 X117.826 Y71.728 E.01681
G1 X112.169 Y66.072 E.25145
G1 X111.635 Y66.072 E.01681
G1 X117.291 Y71.728 E.25146
G1 X116.757 Y71.728 E.01681
G1 X111.1 Y66.072 E.25146
G1 X110.565 Y66.072 E.01681
G1 X116.222 Y71.728 E.25147
G1 X115.687 Y71.728 E.01681
G1 X110.031 Y66.071 E.25147
G1 X109.496 Y66.071 E.01681
G1 X115.153 Y71.728 E.25147
G1 X114.618 Y71.728 E.01681
G1 X108.961 Y66.071 E.25148
G1 X108.426 Y66.071 E.01681
G1 X114.083 Y71.728 E.25148
G1 X113.549 Y71.728 E.01681
G1 X107.892 Y66.071 E.25149
G1 X107.357 Y66.071 E.01681
G1 X113.014 Y71.728 E.25149
G1 X112.48 Y71.728 E.01681
G1 X106.822 Y66.071 E.25149
G1 X106.288 Y66.071 E.01681
G1 X111.945 Y71.728 E.2515
G1 X111.41 Y71.728 E.01681
G1 X105.753 Y66.071 E.2515
G1 X105.218 Y66.071 E.01681
G1 X110.876 Y71.728 E.25151
G1 X110.341 Y71.728 E.01681
G1 X104.683 Y66.071 E.25151
G1 X104.149 Y66.07 E.01681
G1 X109.806 Y71.728 E.25151
G1 X109.272 Y71.728 E.01681
M73 Q3 S50
G1 X103.614 Y66.07 E.25152
G1 X103.079 Y66.07 E.01681
G1 X108.737 Y71.728 E.25152
G1 X108.203 Y71.728 E.01681
G1 X102.545 Y66.07 E.25153
G1 X102.01 Y66.07 E.01681
G1 X107.668 Y71.728 E.25153
G1 X107.172 Y71.767 E.01563
G1 X101.475 Y66.07 E.25327
G1 X101.389 Y66.07 E.0027
G1 X101.389 Y66.519 E.0141
G1 X106.677 Y71.806 E.23505
G1 X106.572 Y71.814 E.00331
G1 X106.232 Y71.896 E.01098
G1 X101.389 Y67.053 E.21528
G1 X101.389 Y67.588 E.01681
G1 X105.801 Y72 E.19612
G1 X105.381 Y72.114 E.01368
G1 X101.389 Y68.123 E.17745
G1 X101.389 Y68.657 E.01681
G1 X105.003 Y72.271 E.16065
G1 X104.625 Y72.428 E.01286
G1 X101.389 Y69.192 E.14384
G1 X101.389 Y69.726 E.01681
G1 X104.267 Y72.604 E.12791
G1 X103.935 Y72.807 E.01222
G1 X101.389 Y70.261 E.11318
G1 X101.389 Y70.796 E.01681
G1 X103.604 Y73.01 E.09844
G1 X103.434 Y73.114 E.00627
G1 X103.293 Y73.234 E.00581
G1 X101.389 Y71.33 E.08464
G1 X101.389 Y71.865 E.01681
G1 X103.005 Y73.481 E.07182
G1 X102.716 Y73.727 E.01192
G1 X101.389 Y72.4 E.059
G1 X101.389 Y72.934 E.01681
G1 X102.448 Y73.993 E.04707
G1 X102.202 Y74.282 E.01192
G1 X101.389 Y73.469 E.03613
G1 X101.389 Y74.003 E.01681
G1 X101.956 Y74.57 E.02518
G1 X101.824 Y74.724 E.00636
G1 X101.729 Y74.878 E.0057
G1 X101.389 Y74.538 E.01512
G1 X101.389 Y75.073 E.01681
G1 X101.65 Y75.333 E.01158
M204 S1000
;WIPE_START
G1 F8640
G1 X101.389 Y75.073 E-.08505
G1 X101.389 Y74.538 E-.12345
G1 X101.729 Y74.878 E-.11109
G1 X101.824 Y74.724 E-.04185
G1 X101.956 Y74.57 E-.04674
G1 X101.389 Y74.003 E-.18494
G1 X101.389 Y73.469 E-.12345
G1 X101.522 Y73.602 E-.04343
;WIPE_END
G1 E-.04 F2100
G1 Z.6 F720
G1 X145.016 Y76.999 F10800
G1 Z.2 F720
G1 E.8 F2100
M204 S800
G1 F1200
G1 X148.64 Y80.622 E.1611
G1 X148.64 Y81.157 E.01681
G1 X146.033 Y78.55 E.11589
G1 X146.411 Y79.463 E.03105
G1 X148.64 Y81.692 E.09908
G1 X148.64 Y82.226 E.01681
G1 X146.592 Y80.179 E.09103
G1 X146.761 Y80.882 E.02274
G1 X148.64 Y82.761 E.08352
G1 X148.64 Y83.296 E.01681
G1 X146.869 Y81.524 E.07874
G1 X146.914 Y82.105 E.0183
G1 X148.64 Y83.83 E.07671
G1 X148.64 Y84.365 E.01681
G1 X146.96 Y82.685 E.07468
G1 X146.982 Y83.241 E.01749
G1 X148.64 Y84.899 E.07372
G1 X148.64 Y85.434 E.01681
G1 X146.982 Y83.776 E.07372
G1 X146.982 Y84.31 E.01681
G1 X148.64 Y85.969 E.07372
G1 X148.64 Y86.503 E.01681
G1 X146.982 Y84.845 E.07372
G1 X146.982 Y85.38 E.01681
G1 X148.64 Y87.038 E.07372
G1 X148.64 Y87.573 E.01681
G1 X146.982 Y85.914 E.07372
G1 X146.982 Y86.449 E.01681
G1 X148.64 Y88.107 E.07372
G1 X148.64 Y88.642 E.01681
G1 X146.982 Y86.983 E.07372
G1 X146.982 Y87.518 E.01681
G1 X148.64 Y89.176 E.07372
G1 X148.64 Y89.711 E.01681
G1 X146.982 Y88.053 E.07372
G1 X146.982 Y88.587 E.01681
G1 X148.64 Y90.246 E.07372
G1 X148.64 Y90.78 E.01681
G1 X146.982 Y89.122 E.07372
G1 X146.982 Y89.657 E.01681
G1 X148.64 Y91.315 E.07372
G1 X148.64 Y91.85 E.01681
G1 X146.982 Y90.191 E.07372
G1 X146.982 Y90.726 E.01681
G1 X148.64 Y92.384 E.07372
G1 X148.64 Y92.919 E.01681
G1 X146.982 Y91.261 E.07372
G1 X146.982 Y91.795 E.01681
G1 X148.64 Y93.453 E.07372
G1 X148.64 Y93.988 E.01681
G1 X146.982 Y92.33 E.07372
G1 X146.982 Y92.864 E.01681
G1 X148.64 Y94.523 E.07372
G1 X148.64 Y95.057 E.01681
G1 X146.982 Y93.399 E.07372
